X:1
T:Lassie Wi' the Yellow Coatie
M:3/4
L:1/4
K:F
 A A2| A2 G| F2 D| C F2| C C2| F2 F| G2 c| A F2| A A2| A2 G| F2 D|\
 C F2| C2 C| c2 B| A- B G| F2||

